resources/icons/16px/mugshot.svg

<svg xmlns="http://www.w3.org/2000/svg" viewBox="0 0 16 16">
  <path d="M15 0H1C.45 0 0 .45 0 1v14c0 .55.45 1 1 1h14c.55 0 1-.45 1-1V1c0-.55-.45-1-1-1m-1 14h-.15c-.03-.09-.04-.16-.08-.25-.34-.79-2.01-1.31-3.12-1.8s-.96-.79-1-1.2c-.01-.06-.01-.12-.01-.18.38-.34.69-.8.89-1.33 0 0 .01-.03.01-.04.04-.12.08-.24.11-.36.25-.05.4-.33.46-.59.06-.1.18-.36.15-.65-.04-.37-.19-.55-.35-.62v-.06c0-.48-.04-1.16-.13-1.61-.02-.12-.05-.25-.08-.37-.16-.55-.51-1.05-.96-1.39C9.26 3.19 8.6 3 8 3c-.59 0-1.26.19-1.73.55-.45.35-.8.84-.96 1.39-.04.13-.06.25-.08.38-.09.45-.13 1.13-.13 1.61v.06c-.18.06-.33.24-.37.62-.03.29.09.54.15.65.06.26.21.54.47.59.03.12.07.25.11.36 0 .01.01.02.01.02v.01c.21.54.53 1.01.92 1.35 0 .05-.01.11-.01.16-.04.41.08.7-1.03 1.2-1.11.49-2.77 1.01-3.12 1.8-.04.09-.05.16-.08.25H2V2h12z"/>
</svg>

<?xml version="1.0" encoding="utf-8"?>
<!-- Generator: Adobe Illustrator 18.1.0, SVG Export Plug-In . SVG Version: 6.00 Build 0)  -->
<svg version="1.1" id="Layer_1" xmlns="http://www.w3.org/2000/svg" xmlns:xlink="http://www.w3.org/1999/xlink" x="0px" y="0px"
	 viewBox="0 0 16 16" enable-background="new 0 0 16 16" xml:space="preserve">
<g id="mugshot_1_">
	<g>
		<path fill-rule="evenodd" clip-rule="evenodd" d="M15,0H1C0.45,0,0,0.45,0,1v14c0,0.55,0.45,1,1,1h14c0.55,0,1-0.45,1-1V1
			C16,0.45,15.55,0,15,0z M14,14h-0.15c-0.03-0.09-0.04-0.16-0.08-0.25c-0.34-0.79-2.01-1.31-3.12-1.8c-1.11-0.49-0.96-0.79-1-1.2
			c-0.01-0.06-0.01-0.12-0.01-0.18c0.38-0.34,0.69-0.8,0.89-1.33c0,0,0.01-0.03,0.01-0.04c0.04-0.12,0.08-0.24,0.11-0.36
			c0.25-0.05,0.4-0.33,0.46-0.59c0.06-0.1,0.18-0.36,0.15-0.65c-0.04-0.37-0.19-0.55-0.35-0.62c0-0.02,0-0.04,0-0.06
			c0-0.48-0.04-1.16-0.13-1.61c-0.02-0.12-0.05-0.25-0.08-0.37c-0.16-0.55-0.51-1.05-0.96-1.39C9.26,3.19,8.6,3,8,3
			C7.41,3,6.74,3.19,6.27,3.55C5.82,3.9,5.47,4.39,5.31,4.94C5.27,5.07,5.25,5.19,5.23,5.32C5.14,5.77,5.1,6.45,5.1,6.93
			c0,0.02,0,0.04,0,0.06C4.92,7.05,4.77,7.23,4.73,7.61C4.7,7.9,4.82,8.15,4.88,8.26C4.94,8.52,5.09,8.8,5.35,8.85
			c0.03,0.12,0.07,0.25,0.11,0.36c0,0.01,0.01,0.02,0.01,0.02l0,0.01C5.68,9.78,6,10.25,6.39,10.59c0,0.05-0.01,0.11-0.01,0.16
			c-0.04,0.41,0.08,0.7-1.03,1.2c-1.11,0.49-2.77,1.01-3.12,1.8C2.19,13.84,2.18,13.91,2.15,14H2V2h12V14z"/>
	</g>
</g>
</svg>
